X:3
T:Bulchenska Rachenitsa
R:rachenitsa
D:Ivo Papasov
O:Bulgaria
Z:id:hn-rachenitsa-3
M:2+2+3/16
L:1/16
Q:1/8=220
K:Aphr ^c
A2a2 gag | ^f2fe fed | e^fgf g=fe | e2ed ^c_BA |
   A^cea gag | ^f2fe fed | e^fgf g=fe |1 e2ea e3 :|2 e2ea e=f^f ||
|: gfed ^c_BA | _B2BA BAG | A_B^cd dcB | A_B^cd e=f^f |
   g=fed ^c_BA | _B2BA BAG | A_B^cd dcB | A2AE A3 :|
A2a2 g2a | ^f4 fed | e^fgf g=fe | e2e2 eee |
   A^cea gag | ^f4 fed | e^fga g=fe | e2z2 e=f^f ||
|: gfed ^c_BA | A_B3 BAG | A_B^cd dcB | A_B^cd e=f^f |
   g=fed ^c_BA | A_B3 BAG | A_B^cd dcB | A2AE A3 :|
|: f2d2 ~d3 | f2gf gfe | e2^c2 ~c3 | e2fe fed |
   d2_B2 ~B3 | d2ed ed^c | A^cea g_ba | gfed ^c_BA :|

